build/system/ArrowDownOutline.svg

<svg xmlns="http://www.w3.org/2000/svg" fill="none" viewBox="0 0 24 24" focusable="false"><path d="M0 0H24V24H0z"/><path fill="#74767B" d="M5.8208 11.5C5.8208 11.32 5.8908 11.15 6.0308 11.02C6.3008 10.78 6.7108 10.8 6.9508 11.06L11.3508 15.8956L11.3508 4.99998C11.3508 4.64099 11.6418 4.34998 12.0008 4.34998C12.3598 4.34998 12.6508 4.64099 12.6508 4.99998L12.6508 15.8956L17.0508 11.06C17.2908 10.79 17.7008 10.78 17.9708 11.02C18.2308 11.26 18.2508 11.67 18.0108 11.94L12.5208 17.98C12.2408 18.29 11.7608 18.29 11.4808 17.98L5.9908 11.94C5.8708 11.81 5.8208 11.66 5.8208 11.5Z"/></svg>

<svg xmlns="http://www.w3.org/2000/svg" fill="none" viewBox="0 0 24 24" focusable="false"><path fill="#74767B" d="M5.82 11.5c0-.18.07-.35.21-.48.27-.24.68-.22.92.04l4.4 4.83V4.99c0-.35.29-.65.65-.65.35 0 .65.3.65.65v10.9l4.4-4.83a.65.65 0 0 1 .92-.04c.26.24.28.65.04.92l-5.49 6.04c-.28.31-.76.31-1.04 0l-5.49-6.04a.63.63 0 0 1-.17-.44"/></svg>
